public/build/img/sistema/panelnotificaciones-bl.svg

<svg width="36" height="41" viewBox="0 0 36 41" fill="none" xmlns="http://www.w3.org/2000/svg">
<path d="M18.0002 0.777344C16.6174 0.777344 15.5002 1.89453 15.5002 3.27734V4.77734C9.79709 5.93359 5.50021 10.9805 5.50021 17.0273V18.4961C5.50021 22.168 4.14865 25.7148 1.71115 28.4648L1.13303 29.1133C0.476776 29.8477 0.320526 30.9023 0.718964 31.8008C1.1174 32.6992 2.01584 33.2773 3.00021 33.2773H33.0002C33.9846 33.2773 34.8752 32.6992 35.2815 31.8008C35.6877 30.9023 35.5237 29.8477 34.8674 29.1133L34.2893 28.4648C31.8518 25.7148 30.5002 22.1758 30.5002 18.4961V17.0273C30.5002 10.9805 26.2033 5.93359 20.5002 4.77734V3.27734C20.5002 1.89453 19.383 0.777344 18.0002 0.777344ZM21.5393 39.3164C22.4768 38.3789 23.0002 37.1055 23.0002 35.7773H18.0002H13.0002C13.0002 37.1055 13.5237 38.3789 14.4612 39.3164C15.3987 40.2539 16.6721 40.7773 18.0002 40.7773C19.3283 40.7773 20.6018 40.2539 21.5393 39.3164Z" fill="white"/>
</svg>

<svg width="36" height="41" fill="none" xmlns="http://www.w3.org/2000/svg"><path d="M18 .777a2.497 2.497 0 00-2.5 2.5v1.5c-5.703 1.157-10 6.203-10 12.25v1.47c0 3.671-1.351 7.218-3.789 9.968l-.578.648a2.51 2.51 0 00-.414 2.688A2.496 2.496 0 003 33.277h30c.985 0 1.875-.578 2.282-1.476a2.494 2.494 0 00-.415-2.688l-.578-.648a15.021 15.021 0 01-3.789-9.969v-1.469c0-6.047-4.297-11.093-10-12.25v-1.5c0-1.382-1.117-2.5-2.5-2.5zm3.54 38.54a5.002 5.002 0 001.46-3.54H13c0 1.328.524 2.602 1.461 3.54a5.002 5.002 0 003.54 1.46 5.002 5.002 0 003.538-1.46z" fill="#fff"/></svg>
